X: 3
T: POLKAS: P&O Set
T: P&O (D)
C: C: Christy Leahy / Trad. / Trad.; S: ThZCh; Polca an Rí; Brendan Begley
C: Set Leaders: Oliushka, Anton
Z: By Anton Zille / Bregolas at The Session
N: https://thesession.org/members/26966/sets/76527
R: Polka
M: 2/4
L: 1/8
Q: 1/4=140
K: Dmin
|:A,D DE|FG/F/ ED|EC C>D|EC DC|
A,D DE|F2 EG|FA Gc|1 d2 dA:|2 dA de||
|:f2 ec|dc AG|Ec cd|e2 de|
fd ec|dc AG|FA Gc|1 d2 de:|2 d2 dA||
T: Tom Mhic's No. 1
K: Dmaj
|:d2 cd/c/|BA FA|B2 Bc|BA FA|
de/d/ cd/c/|BA FD|EF GC|1 ED FA:|2 ED DA,||
|:D>E FA|BA FD|EF GE|BA FA|
D>E FA|BA FD|EF GC|1 ED D2:|2 ED FA||
T: Tom Mhic's No. 2
K: Dmaj
|:AB cd|ed c/d/c/B/|AB cd|e2 e2|
A>B cd|ed c>B|AB ce|1 de/d/ cB:||2 d2 d>f||
|:af ed|f2 e2|A>B cd|e2 ef/g/|
af ed|f2 eA|A>B ce|1 d2 d>f:|2 de/d/ cB|| A4||

